X:10597
T:McDermot's
R:Jig
S:(Seamus Egan)
H:
N:
D:
Z:Adrian Scahill
M:6/8
L:1/8
K:D
A|FDA, DFB|AFD EDB,|DFA def|g3 eag|\
fdB AFD|EDB, DFA|d3 eag|fdc d3:||\
afa geg|fdf ecA|dcd fed|cAc efg|\
afa g2a|egf ecA|dcd eag|edc d3:||
